X:1
T:Favorite Waltz [3]
M:3/8
L:1/8
R:Waltz
S:John Rook music manuscript collection (Waverton, Cumbria, 1840, p. 206)
Z:AK/Fiddler’s Companion
K:D
A|dfA|fad|f/e/g/e/d/c/|e/d/f/d/A|dfA|fad|
f/e/g/e/d/c/|d2::A|d/c/d/e/f/g/|a/b/c'/d'/a/f/|a/^g/a/=g/e/c/|
e/d/f/d/A|d/c/d/e/f/g/|a/b/c'/d'/a/f/|a/^g/a/g/e/c/|d2:|
|:f|c'/a/e/a/c'/a/|d'/a/f/a/d'/a/|c'/a/e/a/c'/a/|d'2 b|
.d'/.c'/.b/.a/.g/.f/|.e/.d/.c/.B/.A/.G/|F/c/f/a/e/c/|d2:|
|:A|dD d/f/|a2 f/d/|cA c/e/|g2 e/c/|dD d/f/|a2 f/a/|
a/g/b/g/e/c/|d2::A|Gb/g/e|Fa/f/d|Eg/e/c|e/d/f/d/A|
Gb/g/e|Fa/f/d|Eg/e/c|d2::A|D/F/A/d/f/a/|d'/a/f/d/f/a/|
g/e/c/A/G/E/|F/A/d/f/a/f/|D/F/A/d/f/a/|d'/a/f/d/f/a/|
g/e/c/A/B/c/|d2::E/A/c/e/g/b/|D/F/c/d/f/a/|g/e/c/A/B/c/|
B/d/a/d'/a/f/|E/A/c/e/g/b/|D/F/A/d/f/a/|g/e/c/A/B/c/|d2:|
|:a|b/a/^g/a/b/a/|b/a/^g/a/f/d/|c/A/c/e/g/b/|b/a/^g/a/f/=g/|
b/a/^g/a/b/a/|b/a/^g/a/f/d/|e/g/A/e/g/e/|d2::A|
d/f/A/d/f/d/|f/a/d/f/a/f/|e/g/c/e/g/e/|d/f/A/d/f/d/|
d/f/A/d/f/d/|f/a/d/f/a/f/|c/A/c/e/g/e/|d2:|
|:f|e/A/g/A/e/A/|f/A/a/A/f/A/|e/A/g/A/e/A/|f/A/a/A/f/A/|
d/d'/A/a/F/f/|D/d/f/a/d'/f/|g/b/e/g/c/e/|d2!D.C.!:|]

